X:1
T:Come, shipmates and brothers
T:Come, shipmates and brothers
T:English Chanty
L:1/8
Q:3/8=40
M:6/8
K:E
V:1 treble nm="Piano" snm="Pno."
V:1
"^Solo" B | B E E ((G/F/) E)"^Chorus" (F/G/) | E3 !>!D E (F/"^Solo" F/) | %3
w: 1.Come,|ship- mates and broth- * ers, Ho _|yo! Cheer- ly. men, _|
w: 2.The|wind it blows hard, _ _ Ho _|yo! Cheer- ly, men, Each|
w: 3.Come,|loose ev- 'ry sail, _ _ Ho _|yo! Cheer- ly, men, We'll|
w: 4.Our|hearts they are light, _ _ Ho _|yo! Cheer- ly, men, Each|
 F F F (F G)"^Chorus" (G/A/) | F3 !>!F G (A/"^Solo" A/) | B E E ((G/F/) E)"^Chorus" (F/G/) | %6
w: Haul all to- geth- er, Ho _|yo! Cheer- ly, men, _|Help ne an- oth- * er, Ho _|
w: tar knows his card, _ Ho _|yo! Cheer- ly, men, We'll|soon man the yards, _ _ _ _|
w: soon face the gale, _ Ho _|yo! Cheer- ly, men, Stout|hearts which ne'er fail, _ _ _ _|
w: eye it seems bright, _ Ho _|yo! Cheer- ly, men, We|bid you good- night, _ _ _ _|
 E3 !>!D E F/ B/ | !>!B E (E/G/) F2 G/ F/ | E3 z z2 |] %9
w: yo! Cheer- ly, men, O|hau- ley, ho _ yo, Cheer- ly,|men!|
w: _ _ _ _ _|||
w: _ _ _ _ _|||
w: _ _ _ _ _|||

